X:26
T:Bobby Shaftoe
R:hp 32
L:1/8
M:2/2
K:G
G2 BB A2B2|G2BB A2B2|G2e2d2B2|G2B2 A4|G2BB A2B2|
G2BB A2B2|G2e2d2c2|(3BcB A2 G4||g3f g2e2|d2B2G4|
g3f g2B2|A6d2|g3f g2B2|D4 d3c|B2G2A2F2|G4G4||

